X: 40627
T: Too Late To Sleep
R: reel
M: 4/4
K: Dmajor
|:FAcA FAdA|.c2{Bc}B2 A2AG|FAGF FGGF|EGFE FAD2|
FAcA FAdA|.c2{Bc}B2 A2AG|FAGF FGGF|1 EGFE D2D2:|2 EGFE DEFG||
|:F2c2-cAGF|F2d2- d3A|ABGA FGEF|DEFG FBAG|
F2c2-cAGF|F2d2- d3A|ABGA FGEF|1 FGFE DEFG:|2 FGFE D4||

